X:395
T:Rudy Meek's Farewell to Scotland
C:Joe Buchanan's Scottish Tome - Page 351.0
I:351 0
Z:Carl Allison
C:Roddy Week's Farewell To Scotland 
R:March
L:1/16
M:2/4
K:D
f2|"Bm"B2c>A c>BB>c | "Bm"f>ec<e f2a2 | "A"f2e>c e2c>B | "A"A2c>B B>AA>c |
"Bm"B2c>A c>BB>c | "Bm"f>ec<e "E7"f>ef>^g | "A"a>^gf>e f>ef<a | "Bm"c2B2 B2 :|
f2|"Bm"a2f<e f2e<c | "Bm"B2B>c f2a2 | "A"f2e>c e2c>B | "A"A2c>B B>AA>f |
"Bm"a2f<e f2e<c | "Bm"B2B>c "E7"f>ef<^g | "A"a>^gf>e "F#m"f>ef<a | "Bm"c2B2 B2f2 |
"Bm"a2f<e f2e<c | "Bm"B2B>c f2a2 | "A"f2e<c e2c>B | "A"A2c>B B>AA>f |
"Bm"B2c>A c>BB>c | "Bm"f>ec<e "E7"f>ef>^g | "A"a>^gf>e f>ef<a | "Bm"c2B2 B2 :|
f2|"Bm"B>dc<A c>BB>c | "Bm"f>ag<e f2e<a | "A"f>ec<e a>fe>c | "A"A2c>B B>AA>c |
"Bm"B>dc<A c>BB>c | "Bm"f>ag<e "E7"f>ef>g | "A"a^gf>e "F#7"f>ef>a | "Bm"c2B2 B2 :|
f2|"Bm"a>fe<f f>ec<A | "Bm"c>BB>c f2e>c | "A"A>a^g<a f2e>c | "A"e>cB>c A>B((3cBA) |
"Bm"B>ag<a f>ec<A | "Bm"c>BB>c "E7"f>ef>^g | "A"a>^gf>e "F#7"f>ef<a | "Bm"c2B2 B2f2 |
"Bm"a>fe<f f>ec<A | "Bm"c>BB>c f2e>c | "A"A>a^g<a f2e>c | "A"e>cB>c A>B((3cBA) |
"Bm"B2c<A c>BB>c | "Bm"fece "E7"f>ef>g | "A"a2^g<e f>ef<a | "Bm"c2B2 B2 |]

